src/components/00-materials/images-raw/Custody.svg

<svg width="96" height="96" viewBox="0 0 96 96" fill="none" xmlns="http://www.w3.org/2000/svg">
<path d="M34.64 29.2701C34.8941 25.0787 36.7746 21.1522 39.8809 18.3269C42.9873 15.5016 47.0741 14.0008 51.2707 14.1442C55.4673 14.2876 59.442 16.0639 62.3483 19.0946C65.2546 22.1254 66.8627 26.1712 66.83 30.3701" stroke="#00008F" stroke-width="2" stroke-linecap="round" stroke-linejoin="round"/>
<path d="M64.82 75.7002C74.8329 75.7002 82.95 67.5831 82.95 57.5702C82.95 47.5573 74.8329 39.4402 64.82 39.4402C54.8071 39.4402 46.69 47.5573 46.69 57.5702C46.69 67.5831 54.8071 75.7002 64.82 75.7002Z" stroke="#00008F" stroke-width="2" stroke-linecap="round" stroke-linejoin="round"/>
<path d="M40.68 58.8101C38.9015 61.9357 36.0795 64.3354 32.7087 65.5886C29.338 66.8418 25.6338 66.8684 22.2453 65.6639C18.8569 64.4594 16.0007 62.1005 14.1773 59.0009C12.354 55.9013 11.6799 52.2587 12.2734 48.7119C12.8668 45.1651 14.6898 41.9403 17.4228 39.603C20.1557 37.2657 23.6243 35.965 27.2202 35.929C30.8162 35.893 34.31 37.124 37.0893 39.4061C39.8685 41.6883 41.7557 44.8759 42.42 48.4101M77.91 37.2501V32.4601C77.9074 31.9066 77.6863 31.3766 77.2949 30.9852C76.9036 30.5938 76.3735 30.3727 75.82 30.3701H53.82C53.2648 30.3701 52.7321 30.59 52.3386 30.9817C51.9451 31.3733 51.7226 31.9049 51.72 32.4601V37.2501C47.33 40.0782 43.9735 44.2515 42.1526 49.1459C40.3317 54.0402 40.1442 59.3925 41.6182 64.4023C43.0922 69.4121 46.1484 73.81 50.3298 76.9383C54.5111 80.0667 59.5929 81.7573 64.815 81.7573C70.0371 81.7573 75.1189 80.0667 79.3002 76.9383C83.4816 73.81 86.5378 69.4121 88.0118 64.4023C89.4858 59.3925 89.2983 54.0402 87.4774 49.1459C85.6565 44.2515 82.3 40.0782 77.91 37.2501ZM70.86 34.4001H72.88H70.86Z" stroke="#00008F" stroke-width="2" stroke-linecap="round" stroke-linejoin="round"/>
<path d="M45.85 42.59C45.1297 41.0545 44.2228 39.6136 43.15 38.3L44.39 34.46C44.529 34.0144 44.4874 33.532 44.2742 33.1167C44.061 32.7015 43.6932 32.3866 43.25 32.24L25.59 26.56C25.3694 26.4884 25.1368 26.4612 24.9057 26.4798C24.6745 26.4984 24.4493 26.5625 24.243 26.6685C24.0367 26.7744 23.8534 26.9201 23.7036 27.0971C23.5537 27.2741 23.4404 27.479 23.37 27.7L22.13 31.54C19.1055 32.357 16.3101 33.8604 13.9609 35.9333C11.6118 38.0061 9.77216 40.5926 8.58497 43.4919C7.39779 46.3912 6.895 49.5251 7.11569 52.6503C7.33638 55.7754 8.27459 58.8076 9.85744 61.5113C11.4403 64.215 13.6251 66.5173 16.2423 68.2394C18.8594 69.9616 21.8384 71.0572 24.9477 71.4411C28.057 71.825 31.213 71.4869 34.1704 70.4531C37.1278 69.4192 39.8071 67.7175 42 65.48M38.23 34.19L39.84 34.71" stroke="#00008F" stroke-width="2" stroke-linecap="round" stroke-linejoin="round"/>
</svg>

<svg width="96" height="96" viewBox="0 0 96 96" fill="none" xmlns="http://www.w3.org/2000/svg"><path d="M34.64 29.27a16.11 16.11 0 0132.19 1.1M64.82 75.7c10.013 0 18.13-8.117 18.13-18.13 0-10.013-8.117-18.13-18.13-18.13-10.013 0-18.13 8.117-18.13 18.13 0 10.013 8.117 18.13 18.13 18.13z" stroke="#00008F" stroke-width="2" stroke-linecap="round" stroke-linejoin="round"/><path d="M40.68 58.81a15.31 15.31 0 111.74-10.4m35.49-11.16v-4.79a2.1 2.1 0 00-2.09-2.09h-22a2.1 2.1 0 00-2.1 2.09v4.79a24.18 24.18 0 1026.19 0zm-7.05-2.85h2.02-2.02z" stroke="#00008F" stroke-width="2" stroke-linecap="round" stroke-linejoin="round"/><path d="M45.85 42.59a20.64 20.64 0 00-2.7-4.29l1.24-3.84a1.78 1.78 0 00-1.14-2.22l-17.66-5.68a1.76 1.76 0 00-2.22 1.14l-1.24 3.84A20.38 20.38 0 1042 65.48m-3.77-31.29l1.61.52" stroke="#00008F" stroke-width="2" stroke-linecap="round" stroke-linejoin="round"/></svg>
